src/microsoft-powerpoint.svg

<svg viewBox="0 0 24 24" fill="none" xmlns="http://www.w3.org/2000/svg">
<path d="M22 12H4C4.00555 13.8849 5.52568 15.587 6.44737 16.9611C7.87871 19.0951 10.2785 20.4382 13.2234 20.4468C18.0647 20.4327 21.9858 16.812 22 12Z" fill="#D35230"/>
<path d="M13 3C17.812 3.0141 21.9859 7.18225 22 12H13V3Z" fill="#FF8F6B"/>
<path d="M13 3C8.18286 3.01409 4.01409 7.18286 4 12H13V3Z" fill="#ED6C47"/>
<path d="M2.83333 6H11.1667C11.6269 6 12 6.41042 12 6.91667V16.0833C12 16.5896 11.6269 17 11.1667 17H2.83334C2.3731 17 2 16.5896 2 16.0833V6.91666C2 6.4104 2.3731 6 2.83333 6Z" fill="#C43E1C"/>
<path d="M6.59111 8.00658C7.22933 7.96025 7.86209 8.15976 8.37675 8.56962C8.80448 8.98149 9.0329 9.5827 8.99616 10.2C9.00322 10.5953 8.89618 10.9832 8.68986 11.31C8.4797 11.6715 8.17712 11.9598 7.8186 12.14C7.40884 12.3451 6.96103 12.4464 6.50942 12.4361H5.2706V15H4V8.00658H6.59111ZM5.2706 11.2817H6.36422C6.71078 11.309 7.05461 11.1985 7.33077 10.9709C7.55447 10.8157 7.68022 10.5397 7.6575 10.2538C7.6575 9.48027 7.24002 9.09349 6.40505 9.09349H5.2706V11.2817Z" fill="#F9F7F7"/>
</svg>

<svg xmlns="http://www.w3.org/2000/svg" fill="none" viewBox="0 0 24 24"><path fill="#D35230" d="M22 12H4c.006 1.885 1.526 3.587 2.447 4.961 1.432 2.134 3.831 3.477 6.776 3.486C18.065 20.433 21.986 16.812 22 12Z"/><path fill="#FF8F6B" d="M13 3c4.812.014 8.986 4.182 9 9h-9V3Z"/><path fill="#ED6C47" d="M13 3c-4.817.014-8.986 4.183-9 9h9V3Z"/><path fill="#C43E1C" d="M2.833 6h8.334c.46 0 .833.41.833.917v9.166c0 .507-.373.917-.833.917H2.833c-.46 0-.833-.41-.833-.917V6.917C2 6.41 2.373 6 2.833 6Z"/><path fill="#F9F7F7" d="M6.591 8.007a2.563 2.563 0 0 1 1.786.563c.427.411.656 1.013.62 1.63.006.395-.1.783-.307 1.11a2.11 2.11 0 0 1-.871.83 2.78 2.78 0 0 1-1.31.296H5.271V15H4V8.007h2.591Zm-1.32 3.275h1.093c.347.027.69-.084.967-.311a.795.795 0 0 0 .326-.717c0-.774-.417-1.16-1.252-1.16H5.271v2.188Z"/></svg>
